X: 36035
T: Scarborough Fair
R: waltz
M: 3/4
K: Edorian
x2B,2F2|G6|D3 ED2|B,6-|
B,2G2A2|B4B2|G2A2E2|G4G2|
B4B2|G4G2|D2D2D2|D2<F2F2|
G4G2|F4E2|D2D2D2|B,6|
x6|x2B,2F2|G6|D3 ED2|
B,6-|B,2G2A2|B4B2|G2A2E2|
G4G2|B4B2|G4G2|D2D2D2|
D2<F2F2|G4G2|F4E2|D2D2D2|
B,6|

